svgs/sharp-solid/explosion.svg

<svg xmlns="http://www.w3.org/2000/svg" viewBox="0 0 576 512"><!--! Font Awesome Pro 6.6.0 by @fontawesome - https://fontawesome.com License - https://fontawesome.com/license (Commercial License) Copyright 2024 Fonticons, Inc. --><path d="M144 368L0 320l82.3 96 115.2 0c13.2-37.3 48.7-64 90.5-64s77.4 26.7 90.5 64l115.2 0L576 320 432 368 544 0 336 296 312 128l-48 0L240 304 96 192l48 176zM312 0L264 0l0 24 0 48 0 24 48 0 0-24 0-48 0-24zM32 448L0 448l0 64 32 0 512 0 32 0 0-64-32 0L32 448z"/></svg>

<svg xmlns="http://www.w3.org/2000/svg" viewBox="0 0 576 512"><!--! Font Awesome Pro 6.4.2 by @fontawesome - https://fontawesome.com License - https://fontawesome.com/license (Commercial License) Copyright 2023 Fonticons, Inc. --><path d="M144 368L0 320l82.3 96H197.5c13.2-37.3 48.7-64 90.5-64s77.4 26.7 90.5 64H493.7L576 320 432 368 544 0 336 296 312 128H264L240 304 96 192l48 176zM312 0H264V24 72 96h48V72 24 0zM32 448H0v64H32 544h32V448H544 32z"/></svg>
